public/formular-icons/greece/lower-tau.svg

<svg style="vertical-align:-.029ex" xmlns="http://www.w3.org/2000/svg" width="1.17ex" height="1.005ex" viewBox="0 -431 517 444" xmlns:xlink="http://www.w3.org/1999/xlink"><defs><path id="a" d="M39 284q-21 0-21 10 0 7 27 44t54 60q35 27 65 31 6 2 168 2 160 0 165-2 20-5 20-27 0-14-9-26t-23-16q-6-2-96-2t-90-2q-1-1-16-82t-32-165-18-89q-5-15-18-24t-29-9q-33 0-33 33v10l50 162q11 36 24 80t21 64l6 21q0 1-46 1h-11q-9 0-14 1-78 0-122-64-5-8-8-9t-14-2Z"/></defs><g stroke="currentColor" fill="currentColor" stroke-width="0"><use data-c="1D70F" xlink:href="#a" transform="scale(1 -1)"/></g></svg>

<svg style="vertical-align: -0.029ex" xmlns="http://www.w3.org/2000/svg" width="1.17ex" height="1.005ex" role="img" focusable="false" viewBox="0 -431 517 444" xmlns:xlink="http://www.w3.org/1999/xlink"><defs><path id="MJX-123-TEX-I-1D70F" d="M39 284Q18 284 18 294Q18 301 45 338T99 398Q134 425 164 429Q170 431 332 431Q492 431 497 429Q517 424 517 402Q517 388 508 376T485 360Q479 358 389 358T299 356Q298 355 283 274T251 109T233 20Q228 5 215 -4T186 -13Q153 -13 153 20V30L203 192Q214 228 227 272T248 336L254 357Q254 358 208 358Q206 358 197 358T183 359Q105 359 61 295Q56 287 53 286T39 284Z"></path></defs><g stroke="currentColor" fill="currentColor" stroke-width="0" transform="scale(1,-1)"><g data-mml-node="math"><g data-mml-node="mi"><use data-c="1D70F" xlink:href="#MJX-123-TEX-I-1D70F"></use></g></g></g></svg>
